X: 14131
T: Frieze Breeches, The
R: jig
M: 6/8
K: Dmixolydian
"D"FED EFG|Add cAG|A/A/A A "G"BAG|"D"FAF "A7"GFE|
"D"FED EFG|Add cAG|A/A/A A "A"GEA|"D"DED D3:|
|:"D"d2 e {g}fed|"C"e/e/e d cAG|"D"A/A/A A "G"BAG|"D"FAF "A7"GFE|
"D"d2 e {g}fed|"C"e/e/e d cAG|"D" A/A/A A "A"GEA|"D"DED D3:|

